packages/assets/static/images/icons/user-gear.svg

<svg width="24" height="24" viewBox="0 0 24 24" xmlns="http://www.w3.org/2000/svg">
<path d="M12.7402 15.5289C13.9159 14.7966 14.8212 13.7014 15.319 12.4088C15.8168 11.1162 15.88 9.69671 15.4992 8.36498C15.1184 7.03324 14.3142 5.86177 13.2083 5.02778C12.1024 4.19379 10.755 3.74268 9.36989 3.74268C7.98478 3.74268 6.63735 4.19379 5.53146 5.02778C4.42556 5.86177 3.62138 7.03324 3.24056 8.36498C2.85975 9.69671 2.92303 11.1162 3.42083 12.4088C3.91863 13.7014 4.82386 14.7966 5.99958 15.5289C4.06364 16.1627 2.32177 17.3467 0.921142 19.0136C0.855517 19.0887 0.805512 19.176 0.774049 19.2706C0.742587 19.3652 0.730298 19.4651 0.737903 19.5645C0.745508 19.6639 0.772853 19.7608 0.81834 19.8495C0.863826 19.9382 0.926541 20.017 1.00282 20.0812C1.0791 20.1454 1.1674 20.1937 1.26258 20.2234C1.35776 20.253 1.45789 20.2634 1.55713 20.2539C1.65637 20.2444 1.75271 20.2153 1.84054 20.1681C1.92837 20.1209 2.00592 20.0567 2.06864 19.9792C3.95114 17.733 6.54427 16.4964 9.3652 16.4964C12.1861 16.4964 14.7793 17.733 16.6655 19.9792C16.7936 20.1317 16.9769 20.227 17.1752 20.2442C17.3736 20.2614 17.5706 20.1992 17.723 20.0711C17.8754 19.9431 17.9707 19.7597 17.988 19.5614C18.0052 19.3631 17.9429 19.166 17.8149 19.0136C16.4133 17.3467 14.6715 16.1627 12.7402 15.5289ZM4.4902 10.1214C4.4902 9.15724 4.77612 8.21471 5.31179 7.41302C5.84746 6.61133 6.60883 5.98649 7.49962 5.61751C8.39041 5.24854 9.37061 5.15199 10.3163 5.3401C11.2619 5.5282 12.1306 5.9925 12.8124 6.67428C13.4941 7.35606 13.9584 8.2247 14.1465 9.17036C14.3346 10.116 14.2381 11.0962 13.8691 11.987C13.5001 12.8778 12.8753 13.6392 12.0736 14.1748C11.2719 14.7105 10.3294 14.9964 9.3652 14.9964C8.07273 14.9949 6.83362 14.4808 5.9197 13.5669C5.00579 12.653 4.49169 11.4139 4.4902 10.1214ZM22.8886 14.1592L22.4518 13.9071C22.503 13.6357 22.503 13.3572 22.4518 13.0858L22.8886 12.8336C22.974 12.7844 23.0487 12.7188 23.1087 12.6407C23.1687 12.5625 23.2127 12.4733 23.2382 12.3782C23.2637 12.283 23.2702 12.1838 23.2574 12.0861C23.2445 11.9884 23.2126 11.8942 23.1633 11.8089C23.1141 11.7236 23.0485 11.6488 22.9704 11.5888C22.8922 11.5289 22.803 11.4849 22.7079 11.4594C22.6127 11.4339 22.5135 11.4273 22.4158 11.4402C22.3181 11.453 22.224 11.485 22.1386 11.5342L21.7008 11.7874C21.4913 11.6076 21.2504 11.4681 20.9902 11.3758V10.8714C20.9902 10.6725 20.9112 10.4817 20.7705 10.3411C20.6299 10.2004 20.4391 10.1214 20.2402 10.1214C20.0413 10.1214 19.8505 10.2004 19.7099 10.3411C19.5692 10.4817 19.4902 10.6725 19.4902 10.8714V11.3758C19.23 11.4681 18.9891 11.6076 18.7796 11.7874L18.3418 11.5342C18.2564 11.485 18.1623 11.453 18.0646 11.4402C17.9669 11.4273 17.8677 11.4339 17.7725 11.4594C17.6774 11.4849 17.5882 11.5289 17.51 11.5888C17.4319 11.6488 17.3663 11.7236 17.3171 11.8089C17.2678 11.8942 17.2359 11.9884 17.223 12.0861C17.2102 12.1838 17.2167 12.283 17.2422 12.3782C17.2677 12.4733 17.3117 12.5625 17.3717 12.6407C17.4317 12.7188 17.5064 12.7844 17.5918 12.8336L18.0286 13.0858C17.9774 13.3572 17.9774 13.6357 18.0286 13.9071L17.5918 14.1592C17.5064 14.2085 17.4317 14.2741 17.3717 14.3522C17.3117 14.4303 17.2677 14.5195 17.2422 14.6147C17.2167 14.7098 17.2102 14.8091 17.223 14.9068C17.2359 15.0044 17.2678 15.0986 17.3171 15.1839C17.3663 15.2692 17.4319 15.344 17.51 15.404C17.5882 15.464 17.6774 15.508 17.7725 15.5335C17.8677 15.559 17.9669 15.5655 18.0646 15.5527C18.1623 15.5398 18.2564 15.5079 18.3418 15.4586L18.7796 15.2055C18.9891 15.3852 19.23 15.5248 19.4902 15.6171V16.1214C19.4902 16.3203 19.5692 16.5111 19.7099 16.6518C19.8505 16.7924 20.0413 16.8714 20.2402 16.8714C20.4391 16.8714 20.6299 16.7924 20.7705 16.6518C20.9112 16.5111 20.9902 16.3203 20.9902 16.1214V15.6171C21.2504 15.5248 21.4913 15.3852 21.7008 15.2055L22.1386 15.4586C22.2525 15.5247 22.382 15.5593 22.5136 15.5589C22.6788 15.559 22.8394 15.5045 22.9704 15.404C23.1014 15.3035 23.1956 15.1625 23.2384 15.003C23.2811 14.8435 23.27 14.6743 23.2068 14.5217C23.1435 14.3692 23.0317 14.2418 22.8886 14.1592ZM19.4902 13.4964C19.4902 13.3481 19.5342 13.2031 19.6166 13.0797C19.699 12.9564 19.8161 12.8603 19.9532 12.8035C20.0902 12.7468 20.241 12.7319 20.3865 12.7608C20.532 12.7898 20.6656 12.8612 20.7705 12.9661C20.8754 13.071 20.9469 13.2046 20.9758 13.3501C21.0047 13.4956 20.9899 13.6464 20.9331 13.7834C20.8763 13.9205 20.7802 14.0376 20.6569 14.12C20.5335 14.2024 20.3885 14.2464 20.2402 14.2464C20.0413 14.2464 19.8505 14.1674 19.7099 14.0268C19.5692 13.8861 19.4902 13.6953 19.4902 13.4964Z"/>
</svg>

<svg viewBox="0 0 24 24" xmlns="http://www.w3.org/2000/svg" aria-hidden="true" fill="currentColor"><path d="M12.74 15.529a6.375 6.375 0 1 0-6.74 0c-1.936.634-3.678 1.818-5.079 3.485a.75.75 0 1 0 1.148.965c1.882-2.246 4.475-3.483 7.296-3.483s5.414 1.237 7.3 3.483a.75.75 0 1 0 1.15-.965c-1.402-1.667-3.144-2.851-5.075-3.485M4.49 10.12a4.875 4.875 0 1 1 9.75 0 4.875 4.875 0 0 1-9.75 0m18.4 4.04-.437-.252c.051-.271.051-.55 0-.821l.437-.252a.75.75 0 1 0-.75-1.3l-.438.253c-.21-.18-.45-.319-.71-.411v-.505a.75.75 0 1 0-1.5 0v.505a2.2 2.2 0 0 0-.711.411l-.438-.253a.75.75 0 0 0-.75 1.3l.437.252a2.2 2.2 0 0 0 0 .821l-.437.252a.751.751 0 0 0 .75 1.3l.438-.253c.21.18.45.319.71.411v.504a.75.75 0 1 0 1.5 0v-.504c.26-.092.501-.232.71-.412l.439.254a.75.75 0 1 0 .75-1.3m-3.399-.663a.75.75 0 1 1 1.501 0 .75.75 0 0 1-1.5 0"/></svg>
